Yaru++/emotes/16/face-smirk.svg

<svg height="16" width="16" xmlns="http://www.w3.org/2000/svg"><g stroke-width="1.142857"><path d="m8 0a8 8 0 1 0 0 16 8 8 0 0 0 0-16zm-2.2857143 4.5714286c.6388572 0 1.1794286.5405714 1.1794286 1.1782857v1.1074286c0 .6377142-.5405714 1.1428571-1.1794286 1.1428571-.6377143 0-1.1428571-.5051429-1.1428571-1.1428571v-1.1085715c0-.6377143.5051428-1.1782857 1.1428571-1.1782857zm4.5714283 0c.638857 0 1.142857.5405714 1.142857 1.1782857v1.1074286c0 .6377142-.504 1.1428571-1.142857 1.1428571-.637714 0-1.1428569-.5051429-1.1428569-1.1428571v-1.1085715c0-.6377143.5051429-1.1782857 1.1428569-1.1782857zm-7.3279997 3.1074285c.8914286 3.7782859 5.3634286 5.0651429 8.8057147 3.7565719.008.683428-.222858 1.253714-1.318858 1.469714-2.4754281.486857-5.8982853-.163429-7.6342853-2.9645716-.7611428-1.2274285-.1451428-1.9257143.1474286-2.2628571z" fill="#fdc92b"/><path d="m8 0a8 8 0 0 0 -7.98660709 8.3482143 8 8 0 0 1 7.98660709-7.77678573 8 8 0 0 1 7.986607 7.65178573 8 8 0 0 0 -7.986607-8.2232143zm-3.4285714 6.8571429v.5714285c0 .6377143.5051428 1.1428572 1.1428571 1.1428572.6388572 0 1.1785714-.5051429 1.1785714-1.1428572v-.5714285c0 .6377142-.5397142 1.1428571-1.1785714 1.1428571-.6377143 0-1.1428571-.5051429-1.1428571-1.1428571zm4.5714285 0v.5714285c0 .6377143.5051429 1.1428572 1.1428569 1.1428572.638857 0 1.142857-.5051429 1.142857-1.1428572v-.5714285c0 .6377142-.504 1.1428571-1.142857 1.1428571-.637714 0-1.1428569-.5051429-1.1428569-1.1428571zm-6.6674107 2.2767857c-.069651.3583217-.018041.8082028.3348215 1.3772324 1.736 2.801143 5.1585 3.453375 7.6339291 2.966518 1.096-.216 1.327196-.787554 1.319196-1.470983-.03366.0128-.06882.02119-.102674.03349-.141605.39982-.469786.718906-1.216518.866072-2.4754285.486853-5.8979285-.165379-7.6339285-2.966522-.1859746-.2999017-.2884748-.5666366-.3348261-.8058074z" fill="#fff" opacity=".3"/><path d="m5.7142857 3.9977679c-.6377143 0-1.1428571.5408571-1.1428571 1.1785714v.5714286c0-.6377143.5051428-1.1785714 1.1428571-1.1785714v.00223c.6388572 0 1.1785714.5408571 1.1785714 1.1785714v-.5714265c0-.6377143-.5397142-1.1785714-1.1785714-1.1785714zm4.5714283 0c-.637714 0-1.1428569.5408571-1.1428569 1.1785714v.5714286c0-.6377143.5051429-1.1785714 1.1428569-1.1785714v.00223c.638857 0 1.142857.5408571 1.142857 1.1785714v-.5714265c0-.6377143-.504-1.1785714-1.142857-1.1785714zm-7.3281247 3.109375c-.2210875.2547688-.6254994.7156416-.4821429 1.4553571.0805911-.4145977.3252061-.7030834.4821429-.8839286.8827125 3.7413426 5.2749937 5.0357076 8.7031247 3.7901786.066229-.187008.105223-.387118.102675-.604911-3.4422865 1.308571-7.9143757.021588-8.8058043-3.7566961zm13.0290177.5446428a8 8 0 0 1 -7.986607 7.7767853 8 8 0 0 1 -7.98660709-7.6517853 8 8 0 0 0 7.98660709 8.2232143 8 8 0 0 0 7.986607-8.3482143z" opacity=".2"/></g></svg>

<?xml version="1.0" encoding="UTF-8" standalone="no"?>
<svg
   xmlns:dc="http://purl.org/dc/elements/1.1/"
   xmlns:cc="http://creativecommons.org/ns#"
   xmlns:rdf="http://www.w3.org/1999/02/22-rdf-syntax-ns#"
   xmlns:svg="http://www.w3.org/2000/svg"
   xmlns="http://www.w3.org/2000/svg"
   xmlns:sodipodi="http://sodipodi.sourceforge.net/DTD/sodipodi-0.dtd"
   xmlns:inkscape="http://www.inkscape.org/namespaces/inkscape"
   width="16"
   height="16"
   version="1.1"
   id="svg4"
   sodipodi:docname="face-smirk.svg"
   inkscape:version="0.92.4 (5da689c313, 2019-01-14)">
  <metadata
     id="metadata10">
    <rdf:RDF>
      <cc:Work
         rdf:about="">
        <dc:format>image/svg+xml</dc:format>
        <dc:type
           rdf:resource="http://purl.org/dc/dcmitype/StillImage" />
      </cc:Work>
    </rdf:RDF>
  </metadata>
  <defs
     id="defs8" />
  <sodipodi:namedview
     pagecolor="#ffffff"
     bordercolor="#666666"
     borderopacity="1"
     objecttolerance="10"
     gridtolerance="10"
     guidetolerance="10"
     inkscape:pageopacity="0"
     inkscape:pageshadow="2"
     inkscape:window-width="1920"
     inkscape:window-height="1016"
     id="namedview6"
     showgrid="false"
     inkscape:zoom="14.75"
     inkscape:cx="-4.8813559"
     inkscape:cy="8"
     inkscape:window-x="0"
     inkscape:window-y="27"
     inkscape:window-maximized="1"
     inkscape:current-layer="svg4" />
  <path
     d="M 8,0 A 8,8 0 1 0 8,16 8,8 0 0 0 8,0 Z M 5.7142857,4.5714286 c 0.6388572,0 1.1794286,0.5405714 1.1794286,1.1782857 V 6.8571429 C 6.8937143,7.4948571 6.3531429,8 5.7142857,8 5.0765714,8 4.5714286,7.4948571 4.5714286,6.8571429 V 5.7485714 c 0,-0.6377143 0.5051428,-1.1782857 1.1428571,-1.1782857 z m 4.5714283,0 c 0.638857,0 1.142857,0.5405714 1.142857,1.1782857 V 6.8571429 C 11.428571,7.4948571 10.924571,8 10.285714,8 9.648,8 9.1428571,7.4948571 9.1428571,6.8571429 V 5.7485714 c 0,-0.6377143 0.5051429,-1.1782857 1.1428569,-1.1782857 z M 2.9577143,7.6788571 C 3.8491429,11.457143 8.3211429,12.744 11.763429,11.435429 c 0.008,0.683428 -0.222858,1.253714 -1.318858,1.469714 C 7.9691429,13.392 4.5462857,12.741714 2.8102857,9.9405714 2.0491429,8.7131429 2.6651429,8.0148571 2.9577143,7.6777143 Z"
     id="path2"
     style="fill:#fdc92b;fill-opacity:1;stroke-width:1.14285719"
     inkscape:connector-curvature="0" />
  <path
     style="opacity:0.3;fill:#ffffff;fill-opacity:1;stroke-width:1.14285719"
     d="M 8,0 A 8,8 0 0 0 0.01339291,8.3482143 8,8 0 0 1 8,0.57142857 8,8 0 0 1 15.986607,8.2232143 8,8 0 0 0 8,0 Z M 4.5714286,6.8571429 v 0.5714285 c 0,0.6377143 0.5051428,1.1428572 1.1428571,1.1428572 0.6388572,0 1.1785714,-0.5051429 1.1785714,-1.1428572 V 6.8571429 C 6.8928571,7.4948571 6.3531429,8 5.7142857,8 5.0765714,8 4.5714286,7.4948571 4.5714286,6.8571429 Z m 4.5714285,0 v 0.5714285 c 0,0.6377143 0.5051429,1.1428572 1.1428569,1.1428572 0.638857,0 1.142857,-0.5051429 1.142857,-1.1428572 V 6.8571429 C 11.428571,7.4948571 10.924571,8 10.285714,8 9.648,8 9.1428571,7.4948571 9.1428571,6.8571429 Z M 2.4754464,9.1339286 c -0.069651,0.3583217 -0.018041,0.8082028 0.3348215,1.3772324 1.736,2.801143 5.1585,3.453375 7.6339291,2.966518 1.096,-0.216 1.327196,-0.787554 1.319196,-1.470983 -0.03366,0.0128 -0.06882,0.02119 -0.102674,0.03349 -0.141605,0.39982 -0.469786,0.718906 -1.216518,0.866072 C 7.9687725,13.393111 4.5462725,12.740879 2.8102725,9.939736 2.6242979,9.6398343 2.5217977,9.3730994 2.4754464,9.1339286 Z"
     id="path817"
     inkscape:connector-curvature="0" />
  <path
     style="opacity:0.2;fill:#000000;fill-opacity:1;stroke-width:1.14285719"
     d="m 5.7142857,3.9977679 c -0.6377143,0 -1.1428571,0.5408571 -1.1428571,1.1785714 v 0.5714286 c 0,-0.6377143 0.5051428,-1.1785714 1.1428571,-1.1785714 v 0.00223 c 0.6388572,0 1.1785714,0.5408571 1.1785714,1.1785714 V 5.1785714 C 6.8928571,4.5408571 6.3531429,4 5.7142857,4 Z m 4.5714283,0 c -0.637714,0 -1.1428569,0.5408571 -1.1428569,1.1785714 v 0.5714286 c 0,-0.6377143 0.5051429,-1.1785714 1.1428569,-1.1785714 v 0.00223 c 0.638857,0 1.142857,0.5408571 1.142857,1.1785714 V 5.1785714 C 11.428571,4.5408571 10.924571,4 10.285714,4 Z M 2.9575893,7.1071429 C 2.7365018,7.3619117 2.3320899,7.8227845 2.4754464,8.5625 2.5560375,8.1479023 2.8006525,7.8594166 2.9575893,7.6785714 3.8403018,11.419914 8.232583,12.714279 11.660714,11.46875 11.726943,11.281742 11.765937,11.081632 11.763389,10.863839 8.3211025,12.17241 3.8490133,10.885427 2.9575847,7.1071429 Z M 15.986607,7.6517857 A 8,8 0 0 1 8,15.428571 8,8 0 0 1 0.01339291,7.7767857 8,8 0 0 0 8,16 8,8 0 0 0 15.986607,7.6517857 Z"
     id="path822"
     inkscape:connector-curvature="0" />
</svg>
